apps/mobile/assets/icons/phosphor/pencil.svg

<svg
  height="32"
  viewBox="0 0 256 256"
  width="32"
  xmlns="http://www.w3.org/2000/svg"
>
  <path
    d="m227.31 73.37-44.68-44.69a16 16 0 0 0 -22.63 0l-123.31 123.32a15.86 15.86 0 0 0 -4.69 11.31v44.69a16 16 0 0 0 16 16h44.69a15.86 15.86 0 0 0 11.31-4.69l123.31-123.31a16 16 0 0 0 0-22.63zm-176 86.63 84.69-84.69 16.69 16.69-84.69 84.68zm-3.31 19.31 28.69 28.69h-28.69zm48 25.38-16.69-16.69 84.69-84.69 16.69 16.69zm96-96-44.69-44.69 24-24 44.69 44.68z"
  />
</svg>

<svg xmlns="http://www.w3.org/2000/svg" width="32" height="32" fill="#000000" viewBox="0 0 256 256"><path d="M227.31,73.37,182.63,28.68a16,16,0,0,0-22.63,0L36.69,152A15.86,15.86,0,0,0,32,163.31V208a16,16,0,0,0,16,16H92.69A15.86,15.86,0,0,0,104,219.31L227.31,96a16,16,0,0,0,0-22.63ZM51.31,160,136,75.31,152.69,92,68,176.68ZM48,179.31,76.69,208H48Zm48,25.38L79.31,188,164,103.31,180.69,120Zm96-96L147.31,64l24-24L216,84.68Z"></path></svg>
